source/img/mobile/icon-trust2.svg

<svg width="83" height="70" viewBox="0 0 83 70" fill="none" xmlns="http://www.w3.org/2000/svg">
<circle opacity="0.1" cx="48" cy="35" r="35" fill="#2F80ED"/>
<path d="M60.0161 33.5161H59.0323V27.4437C59.0323 25.3854 58.2314 23.4511 56.7762 21.998C55.3211 20.5428 53.3868 19.7419 51.3295 19.7419H50.1774V18.6774C52.5259 17.3137 54.1129 14.7773 54.1129 11.871C54.1129 7.53111 50.5818 4 46.2419 4C41.9021 4 38.371 7.53111 38.371 11.871C38.371 14.7763 39.958 17.3137 42.3064 18.6774V19.7419H41.1543C39.0971 19.7419 37.1628 20.5428 35.7076 21.998C34.2525 23.4521 33.4516 25.3854 33.4516 27.4437V33.5161H31.4839V30.5645C31.4839 30.0204 31.0431 29.5806 30.5 29.5806H27.5484V29.2432C27.5484 26.3742 28.5165 23.6558 30.2904 21.4529C30.6564 21.6152 31.0588 21.7097 31.4839 21.7097C33.1112 21.7097 34.4355 20.3854 34.4355 18.7581C34.4355 17.1307 33.1112 15.8065 31.4839 15.8065C29.8565 15.8065 28.5323 17.1307 28.5323 18.7581C28.5323 19.2382 28.6582 19.6839 28.8619 20.0853C26.7377 22.6601 25.5806 25.8626 25.5806 29.2432V29.5806H22.629C22.0859 29.5806 21.6452 30.0204 21.6452 30.5645V33.5161H20.6613C20.1182 33.5161 19.6774 33.9559 19.6774 34.5V38.4355C19.6774 38.9796 20.1182 39.4194 20.6613 39.4194H21.6452V45.3226C18.9326 45.3226 16.7258 47.5294 16.7258 50.2419C16.7258 51.703 17.3791 53.0027 18.3935 53.9049C16.8527 54.6074 15.5747 55.788 14.7581 57.2628C13.9415 55.789 12.6634 54.6084 11.1227 53.9049C12.137 53.0027 12.7903 51.703 12.7903 50.2419C12.7903 47.5294 10.5835 45.3226 7.87097 45.3226C5.15844 45.3226 2.95161 47.5294 2.95161 50.2419C2.95161 51.703 3.6049 53.0027 4.61927 53.9049C1.89887 55.1455 0 57.8846 0 61.0645V64.0161C0 64.5602 0.440774 65 0.983871 65H42.3064C42.8495 65 43.2903 64.5602 43.2903 64.0161V63.0323H58.0484C58.5915 63.0323 59.0323 62.5925 59.0323 62.0484V39.4194H60.0161C60.5592 39.4194 61 38.9796 61 38.4355V34.5C61 33.9559 60.5592 33.5161 60.0161 33.5161ZM31.4839 17.7742C32.026 17.7742 32.4677 18.215 32.4677 18.7581C32.4677 19.3012 32.026 19.7419 31.4839 19.7419C30.9418 19.7419 30.5 19.3012 30.5 18.7581C30.5 18.215 30.9418 17.7742 31.4839 17.7742ZM57.0645 27.4437V33.5161H55.0968V29.5806H53.129V33.5161H47.2258V26.2532L49.7376 27.5086C49.8754 27.5785 50.0269 27.6129 50.1774 27.6129C50.3053 27.6129 50.4332 27.5883 50.5542 27.5381C50.8179 27.4289 51.0206 27.2105 51.1111 26.9409L52.7906 21.9035C53.7626 22.1583 54.656 22.6601 55.386 23.3901C56.4683 24.4724 57.0645 25.9118 57.0645 27.4437ZM42.7984 21.7097L44.7474 24.3081L42.881 25.2418L41.7043 21.7097H42.7984ZM49.6855 21.7097H50.7805L49.6038 25.2418L47.7374 24.3081L49.6855 21.7097ZM46.2419 5.96774C49.1345 5.96774 51.543 8.06044 52.0448 10.8104C50.1814 10.5742 48.4566 9.74187 47.1077 8.39298L46.9395 8.22376C46.5705 7.85284 45.9153 7.85284 45.5463 8.22376L45.3791 8.392C44.0292 9.74187 42.3045 10.5742 40.441 10.8094C40.9408 8.06044 43.3494 5.96774 46.2419 5.96774ZM40.4125 12.8027C42.575 12.5882 44.5979 11.7135 46.2419 10.2771C47.886 11.7126 49.9078 12.5882 52.0714 12.8027C51.6237 15.6166 49.1798 17.7742 46.2419 17.7742C43.3041 17.7742 40.8602 15.6166 40.4125 12.8027ZM46.2419 19.7419C46.9228 19.7419 47.579 19.6465 48.2097 19.4832V20.3982L46.2419 23.0212L44.2742 20.3982V19.4832C44.9049 19.6465 45.5611 19.7419 46.2419 19.7419ZM35.4194 27.4437C35.4194 25.9118 36.0156 24.4714 37.0988 23.3891C37.8289 22.6601 38.7222 22.1573 39.6943 21.9025L41.3737 26.9399C41.4643 27.2095 41.6669 27.4279 41.9306 27.5371C42.0506 27.5883 42.1785 27.6129 42.3064 27.6129C42.457 27.6129 42.6085 27.5785 42.7462 27.5096L45.2581 26.2532V33.5161H39.3548V29.5806H37.3871V33.5161H35.4194V27.4437ZM23.6129 31.5484H29.5161V33.5161H23.6129V31.5484ZM18.6935 50.2419C18.6935 48.6146 20.0178 47.2903 21.6452 47.2903C23.2725 47.2903 24.5968 48.6146 24.5968 50.2419C24.5968 51.8693 23.2725 53.1936 21.6452 53.1936C20.0178 53.1936 18.6935 51.8693 18.6935 50.2419ZM4.91935 50.2419C4.91935 48.6146 6.24365 47.2903 7.87097 47.2903C9.49829 47.2903 10.8226 48.6146 10.8226 50.2419C10.8226 51.8693 9.49829 53.1936 7.87097 53.1936C6.24365 53.1936 4.91935 51.8693 4.91935 50.2419ZM1.96774 61.0645C1.96774 57.8089 4.61534 55.1613 7.87097 55.1613C11.1266 55.1613 13.7742 57.8089 13.7742 61.0645V63.0323H1.96774V61.0645ZM15.7419 61.0645C15.7419 57.8089 18.3895 55.1613 21.6452 55.1613C24.9008 55.1613 27.5484 57.8089 27.5484 61.0645V63.0323H15.7419V61.0645ZM41.3226 63.0323H29.5161V61.0645C29.5161 57.8089 32.1637 55.1613 35.4194 55.1613C38.675 55.1613 41.3226 57.8089 41.3226 61.0645V63.0323ZM32.4677 50.2419C32.4677 48.6146 33.792 47.2903 35.4194 47.2903C37.0467 47.2903 38.371 48.6146 38.371 50.2419C38.371 51.8693 37.0467 53.1936 35.4194 53.1936C33.792 53.1936 32.4677 51.8693 32.4677 50.2419ZM57.0645 61.0645H43.2903C43.2903 57.8846 41.3914 55.1455 38.671 53.9049C39.6854 53.0027 40.3387 51.703 40.3387 50.2419C40.3387 47.5294 38.1319 45.3226 35.4194 45.3226C32.7068 45.3226 30.5 47.5294 30.5 50.2419C30.5 51.703 31.1533 53.0027 32.1677 53.9049C30.6269 54.6074 29.3489 55.788 28.5323 57.2628C27.7156 55.789 26.4376 54.6084 24.8969 53.9049C25.9112 53.0027 26.5645 51.703 26.5645 50.2419C26.5645 48.2299 25.3475 46.5013 23.6129 45.7397V39.4194H57.0645V61.0645ZM59.0323 37.4516H21.6452V35.4839H59.0323V37.4516Z" fill="#868686"/>
<path d="M2.95161 23.6775H18.6935C20.3209 23.6775 21.6452 22.3532 21.6452 20.7258V19.1654L25.2924 15.5182C25.6771 15.1335 25.6771 14.5117 25.2924 14.127L21.6452 10.4798V8.91939C21.6452 7.29206 20.3209 5.96777 18.6935 5.96777H2.95161C1.32429 5.96777 0 7.29206 0 8.91939V20.7258C0 22.3532 1.32429 23.6775 2.95161 23.6775ZM1.96774 8.91939C1.96774 8.37629 2.4095 7.93552 2.95161 7.93552H18.6935C19.2357 7.93552 19.6774 8.37629 19.6774 8.91939V10.8871C19.6774 11.1488 19.7807 11.3987 19.9657 11.5827L23.2056 14.8226L19.9657 18.0625C19.7807 18.2465 19.6774 18.4964 19.6774 18.7581V20.7258C19.6774 21.2689 19.2357 21.7097 18.6935 21.7097H2.95161C2.4095 21.7097 1.96774 21.2689 1.96774 20.7258V8.91939Z" fill="#868686"/>
<path d="M3.93555 9.90332H17.7097V11.8711H3.93555V9.90332Z" fill="#868686"/>
<path d="M3.93555 17.7744H17.7097V19.7422H3.93555V17.7744Z" fill="#868686"/>
<path d="M5.90332 13.8389H15.742V15.8066H5.90332V13.8389Z" fill="#868686"/>
</svg>

<svg width="83" height="70" fill="none" xmlns="http://www.w3.org/2000/svg"><circle opacity=".1" cx="48" cy="35" r="35" fill="#2F80ED"/><path d="M60.016 33.516h-.984v-6.072a7.64 7.64 0 0 0-2.256-5.446 7.652 7.652 0 0 0-5.447-2.256h-1.152v-1.065c2.349-1.363 3.936-3.9 3.936-6.806 0-4.34-3.531-7.871-7.871-7.871s-7.871 3.531-7.871 7.871c0 2.905 1.587 5.443 3.935 6.806v1.065h-1.152c-2.057 0-3.991.8-5.446 2.256a7.646 7.646 0 0 0-2.256 5.446v6.072h-1.968v-2.951a.984.984 0 0 0-.984-.984h-2.952v-.338c0-2.869.969-5.587 2.742-7.79.366.162.769.257 1.194.257a2.955 2.955 0 0 0 2.951-2.952 2.955 2.955 0 0 0-2.951-2.951 2.955 2.955 0 0 0-2.952 2.951c0 .48.126.926.33 1.327a14.313 14.313 0 0 0-3.281 9.158v.338h-2.952a.984.984 0 0 0-.984.983v2.952h-.984a.984.984 0 0 0-.984.984v3.935c0 .545.441.984.984.984h.984v5.904a4.925 4.925 0 0 0-4.92 4.919c0 1.461.654 2.76 1.668 3.663a7.91 7.91 0 0 0-3.635 3.358 7.92 7.92 0 0 0-3.635-3.358c1.014-.902 1.667-2.202 1.667-3.663a4.925 4.925 0 0 0-4.919-4.92 4.925 4.925 0 0 0-4.92 4.92c0 1.461.654 2.76 1.668 3.663C1.9 55.145 0 57.885 0 61.065v2.951c0 .544.44.984.984.984h41.322c.544 0 .984-.44.984-.984v-.984h14.758c.544 0 .984-.44.984-.984V39.42h.984c.543 0 .984-.44.984-.983V34.5a.984.984 0 0 0-.984-.984zM31.484 17.774a.985.985 0 0 1 0 1.968.985.985 0 0 1 0-1.968zm25.58 9.67v6.072h-1.967v-3.935h-1.968v3.935h-5.903v-7.263l2.512 1.256a.973.973 0 0 0 .816.03.986.986 0 0 0 .557-.598l1.68-5.037a5.698 5.698 0 0 1 2.595 1.486 5.695 5.695 0 0 1 1.678 4.054zM42.799 21.71l1.95 2.598-1.867.934-1.177-3.532h1.094zm6.887 0h1.096l-1.177 3.532-1.867-.934 1.948-2.598zM46.242 5.968c2.893 0 5.301 2.092 5.803 4.842a8.449 8.449 0 0 1-4.937-2.417l-.168-.17a1.011 1.011 0 0 0-1.394 0l-.167.169a8.442 8.442 0 0 1-4.938 2.417c.5-2.749 2.908-4.841 5.8-4.841zm-5.83 6.835a10.385 10.385 0 0 0 5.83-2.526 10.388 10.388 0 0 0 5.83 2.526 5.912 5.912 0 0 1-5.83 4.971 5.912 5.912 0 0 1-5.83-4.971zm5.83 6.939c.68 0 1.337-.096 1.968-.259v.915l-1.968 2.623-1.968-2.623v-.915c.63.163 1.287.259 1.968.259zm-10.823 7.702c0-1.532.597-2.973 1.68-4.055a5.708 5.708 0 0 1 2.595-1.486l1.68 5.037a.986.986 0 0 0 1.372.57l2.512-1.257v7.263h-5.903v-3.935h-1.968v3.935H35.42v-6.072zm-11.806 4.104h5.903v1.968h-5.903v-1.968zm-4.92 18.694a2.955 2.955 0 0 1 2.952-2.952 2.955 2.955 0 0 1 2.952 2.952 2.955 2.955 0 0 1-2.952 2.952 2.955 2.955 0 0 1-2.951-2.952zm-13.774 0a2.955 2.955 0 0 1 2.952-2.952 2.955 2.955 0 0 1 2.952 2.952 2.955 2.955 0 0 1-2.952 2.952 2.955 2.955 0 0 1-2.952-2.952zM1.968 61.065A5.91 5.91 0 0 1 7.87 55.16a5.91 5.91 0 0 1 5.903 5.904v1.967H1.968v-1.967zm13.774 0a5.91 5.91 0 0 1 5.903-5.904 5.91 5.91 0 0 1 5.903 5.904v1.967H15.742v-1.967zm25.58 1.967H29.517v-1.967a5.91 5.91 0 0 1 5.903-5.904 5.91 5.91 0 0 1 5.904 5.904v1.967zm-8.854-12.79a2.955 2.955 0 0 1 2.951-2.952 2.955 2.955 0 0 1 2.952 2.952 2.955 2.955 0 0 1-2.952 2.952 2.955 2.955 0 0 1-2.951-2.952zm24.596 10.823H43.29c0-3.18-1.899-5.92-4.619-7.16 1.014-.902 1.668-2.202 1.668-3.663a4.925 4.925 0 0 0-4.92-4.92 4.925 4.925 0 0 0-4.919 4.92c0 1.461.653 2.76 1.668 3.663a7.91 7.91 0 0 0-3.636 3.358 7.921 7.921 0 0 0-3.635-3.358c1.014-.902 1.668-2.202 1.668-3.663a4.922 4.922 0 0 0-2.952-4.502v-6.32h33.451v21.645zm1.968-23.613H21.645v-1.968h37.387v1.968zM2.952 23.677h15.742a2.955 2.955 0 0 0 2.951-2.951v-1.56l3.647-3.648a.983.983 0 0 0 0-1.391l-3.647-3.647V8.92a2.955 2.955 0 0 0-2.951-2.952H2.951A2.955 2.955 0 0 0 0 8.919v11.807a2.955 2.955 0 0 0 2.952 2.951zM1.968 8.92c0-.543.442-.983.984-.983h15.742c.542 0 .983.44.983.983v1.968a.98.98 0 0 0 .289.696l3.24 3.24-3.24 3.24a.98.98 0 0 0-.289.695v1.968a.985.985 0 0 1-.983.984H2.951a.985.985 0 0 1-.984-.984V8.919z" fill="#868686"/><path d="M3.936 9.903H17.71v1.968H3.936V9.903zm0 7.871H17.71v1.968H3.936v-1.968zm1.967-3.935h9.839v1.968H5.903v-1.968z" fill="#868686"/></svg>
